server/website/public/icons/base/pcbdesign.svg

<svg width="48" height="48" viewBox="0 0 48 48" fill="none" xmlns="http://www.w3.org/2000/svg">
<g clip-path="url(#clip0_1395_22620)">
<path d="M14 19.8275L26 31.8275V47C26 47.2652 25.8946 47.5196 25.7071 47.7071C25.5196 47.8946 25.2652 48 25 48H4C2.93913 48 1.92172 47.5786 1.17157 46.8284C0.421427 46.0783 0 45.0609 0 44V4C0 2.93913 0.421427 1.92172 1.17157 1.17157C1.92172 0.421427 2.93913 0 4 0H9C9.26522 0 9.51957 0.105357 9.70711 0.292893C9.89464 0.48043 10 0.734784 10 1V30.345C8.66557 30.8168 7.54089 31.7451 6.82474 32.966C6.10858 34.1868 5.84707 35.6215 6.08641 37.0165C6.32575 38.4115 7.05054 39.6769 8.13268 40.5892C9.21482 41.5015 10.5846 42.0019 12 42.0019C13.4154 42.0019 14.7852 41.5015 15.8673 40.5892C16.9495 39.6769 17.6742 38.4115 17.9136 37.0165C18.1529 35.6215 17.8914 34.1868 17.1753 32.966C16.4591 31.7451 15.3344 30.8168 14 30.345V19.8275ZM12 38C12.3956 38 12.7822 37.8827 13.1111 37.6629C13.44 37.4432 13.6964 37.1308 13.8478 36.7654C13.9991 36.3999 14.0387 35.9978 13.9616 35.6098C13.8844 35.2219 13.6939 34.8655 13.4142 34.5858C13.1345 34.3061 12.7781 34.1156 12.3902 34.0384C12.0022 33.9613 11.6001 34.0009 11.2346 34.1522C10.8692 34.3036 10.5568 34.56 10.3371 34.8889C10.1173 35.2178 10 35.6044 10 36C10 36.5304 10.2107 37.0391 10.5858 37.4142C10.9609 37.7893 11.4696 38 12 38ZM38 18C38 17.6044 37.8827 17.2178 37.6629 16.8889C37.4432 16.56 37.1308 16.3036 36.7654 16.1522C36.3999 16.0009 35.9978 15.9613 35.6098 16.0384C35.2219 16.1156 34.8655 16.3061 34.5858 16.5858C34.3061 16.8655 34.1156 17.2219 34.0384 17.6098C33.9613 17.9978 34.0009 18.3999 34.1522 18.7654C34.3036 19.1308 34.56 19.4432 34.8889 19.6629C35.2178 19.8827 35.6044 20 36 20C36.5304 20 37.0391 19.7893 37.4142 19.4142C37.7893 19.0391 38 18.5304 38 18ZM44 0H31C30.7348 0 30.4804 0.105357 30.2929 0.292893C30.1054 0.48043 30 0.734784 30 1V9.1725L33.415 12.5875C34.6922 11.9773 36.1439 11.8384 37.5137 12.1951C38.8834 12.5519 40.0829 13.3814 40.9002 14.537C41.7175 15.6927 42.0999 17.1001 41.9798 18.5104C41.8597 19.9207 41.2449 21.2432 40.2441 22.2441C39.2432 23.2449 37.9207 23.8597 36.5104 23.9798C35.1001 24.0999 33.6927 23.7175 32.537 22.9002C31.3814 22.0829 30.5519 20.8834 30.1951 19.5137C29.8384 18.1439 29.9774 16.6922 30.5875 15.415L26.5875 11.415C26.4014 11.2293 26.2537 11.0088 26.1529 10.766C26.0521 10.5232 26.0001 10.2629 26 10V1C26 0.734784 25.8946 0.48043 25.7071 0.292893C25.5196 0.105357 25.2652 0 25 0H15C14.7348 0 14.4804 0.105357 14.2929 0.292893C14.1054 0.48043 14 0.734784 14 1V14.1725L29.415 29.585C29.6007 29.7709 29.7479 29.9915 29.8483 30.2343C29.9487 30.4771 30.0002 30.7373 30 31V47C30 47.2652 30.1054 47.5196 30.2929 47.7071C30.4804 47.8946 30.7348 48 31 48H44C45.0609 48 46.0783 47.5786 46.8284 46.8284C47.5786 46.0783 48 45.0609 48 44V4C48 2.93913 47.5786 1.92172 46.8284 1.17157C46.0783 0.421427 45.0609 0 44 0Z" fill="black"/>
</g>
<defs>
<clipPath id="clip0_1395_22620">
<rect width="48" height="48" fill="white"/>
</clipPath>
</defs>
</svg>

<svg width="48" height="48" fill="none" xmlns="http://www.w3.org/2000/svg"><g clip-path="url(#prefix__clip0_1395_22620)"><path d="M14 19.828l12 12V47a1 1 0 01-1 1H4a4 4 0 01-4-4V4a4 4 0 014-4h5a1 1 0 011 1v29.345a6 6 0 104 0V19.828zM12 38a2 2 0 100-4 2 2 0 000 4zm26-20a2 2 0 10-4 0 2 2 0 004 0zm6-18H31a1 1 0 00-1 1v8.172l3.415 3.415a6 6 0 11-2.828 2.828l-4-4A2 2 0 0126 10V1a1 1 0 00-1-1H15a1 1 0 00-1 1v13.172l15.415 15.413A2 2 0 0130 31v16a1 1 0 001 1h13a4 4 0 004-4V4a4 4 0 00-4-4z" fill="#000"/></g><defs><clipPath id="prefix__clip0_1395_22620"><path fill="#fff" d="M0 0h48v48H0z"/></clipPath></defs></svg>
